gama.ui.shared/icons_svg/dark/overlays/small.exp.back.green.svg

<svg height="16" viewBox="-662.274 -3115.658 16 16" width="16" xmlns="http://www.w3.org/2000/svg"><g fill="#8eed62"><circle cx="-654.274" cy="-3107.658" r="8"/><path d="m-653.2481-3112.595v9.883c0 .2426.15266.438.3422.438.06846 0 .1369-.027.1896-.074l5.6128-4.874c.1843-.162.2317-.4856.10534-.7215-.02634-.054-.06318-.1011-.10534-.1349l-5.6128-4.8808c-.158-.1348-.3686-.0808-.4739.1146-.0369.0742-.0579.1551-.0579.2426zm-.5266 0c0-.2226.0527-.4384.14746-.627.27379-.5057.81084-.6406 1.21104-.2967l5.61286 4.8741c.10004.0876.18429.1956.24744.3168.2896.5461.17905 1.2878-.24744 1.6584l-5.61286 4.8741c-.1422.1283-.3159.1888-.4897.1888-.4791 0-.8688-.4989-.8688-1.1125z"/><path d="m-655.30005-3102.7206v-9.8831c0-.2427-.1527-.4383-.34225-.4383-.06845 0-.1369.027-.18956.0743l-5.61284 4.8741c-.1843.1616-.2317.4854-.1053.7213.0263.0539.06315.1013.1053.1348l5.61284 4.8809c.15796.1348.36856.0809.47386-.1146.0369-.0742.05795-.1551.05795-.2428zm.52655 0c0 .2226-.0527.4382-.14745.6269-.2738.5057-.81085.6405-1.21105.2967l-5.61285-4.874c-.10005-.0878-.18429-.1957-.24745-.317-.2896-.546-.17905-1.2876.24745-1.6584l5.61285-4.8741c.1422-.1281.31594-.1888.4897-.1888.47915 0 .8688.4989.8688 1.1123z"/></g></svg>

<?xml version="1.0" encoding="UTF-8" standalone="no"?>
<!DOCTYPE svg PUBLIC "-//W3C//DTD SVG 1.1//EN" "http://www.w3.org/Graphics/SVG/1.1/DTD/svg11.dtd">
<svg xmlns="http://www.w3.org/2000/svg" xmlns:xl="http://www.w3.org/1999/xlink" version="1.1" xmlns:dc="http://purl.org/dc/elements/1.1/" viewBox="-662.2741 -3115.658 16.000008 16.000008" width="16.000008" height="16.000008">
  <defs/>
  <g id="SOURCES" stroke-opacity="1" fill="none" stroke="none" fill-opacity="1" stroke-dasharray="none">
    <title>SOURCES</title>
    <g id="SOURCES_Dark">
      <title>Dark</title>
      <g id="Graphic_11158">
        <circle cx="-654.2741" cy="-3107.658" r="8.00001278321502" fill="#8eed62"/>
      </g>
      <g id="Graphic_11157">
        <path d="M -653.2481 -3112.595 L -653.2481 -3102.712 C -653.2481 -3102.4694 -653.09544 -3102.274 -652.9059 -3102.274 C -652.83744 -3102.274 -652.769 -3102.301 -652.7163 -3102.348 L -647.1035 -3107.222 C -646.9192 -3107.384 -646.8718 -3107.7076 -646.99816 -3107.9435 C -647.0245 -3107.9975 -647.06134 -3108.0446 -647.1035 -3108.0784 L -652.7163 -3112.9592 C -652.8743 -3113.094 -653.0849 -3113.04 -653.1902 -3112.8446 C -653.2271 -3112.7704 -653.2481 -3112.6895 -653.2481 -3112.602 Z M -653.7747 -3112.595 C -653.7747 -3112.8176 -653.722 -3113.0334 -653.62724 -3113.222 C -653.35345 -3113.7277 -652.8164 -3113.8626 -652.4162 -3113.5187 L -646.80334 -3108.6446 C -646.7033 -3108.557 -646.61905 -3108.449 -646.5559 -3108.3278 C -646.2663 -3107.7817 -646.37685 -3107.04 -646.80334 -3106.6694 L -652.4162 -3101.7953 C -652.5584 -3101.667 -652.7321 -3101.6065 -652.9059 -3101.6065 C -653.385 -3101.6065 -653.7747 -3102.1054 -653.7747 -3102.719 Z" fill="#8eed62"/>
      </g>
      <g id="Graphic_11156">
        <path d="M -655.30005 -3102.7206 L -655.30005 -3112.6037 C -655.30005 -3112.8464 -655.45275 -3113.042 -655.6423 -3113.042 C -655.71075 -3113.042 -655.7792 -3113.015 -655.83186 -3112.9677 L -661.4447 -3108.0936 C -661.629 -3107.932 -661.6764 -3107.6082 -661.55 -3107.3723 C -661.5237 -3107.3184 -661.48685 -3107.271 -661.4447 -3107.2375 L -655.83186 -3102.3566 C -655.6739 -3102.2218 -655.4633 -3102.2757 -655.358 -3102.4712 C -655.3211 -3102.5454 -655.30005 -3102.6263 -655.30005 -3102.714 Z M -654.7735 -3102.7206 C -654.7735 -3102.498 -654.8262 -3102.2824 -654.92095 -3102.0937 C -655.19475 -3101.588 -655.7318 -3101.4532 -656.132 -3101.797 L -661.74485 -3106.671 C -661.8449 -3106.7588 -661.92914 -3106.8667 -661.9923 -3106.988 C -662.2819 -3107.534 -662.17135 -3108.2756 -661.74485 -3108.6464 L -656.132 -3113.5205 C -655.9898 -3113.6486 -655.81606 -3113.7093 -655.6423 -3113.7093 C -655.16315 -3113.7093 -654.7735 -3113.2104 -654.7735 -3112.597 Z" fill="#8eed62"/>
      </g>
    </g>
  </g>
</svg>
